flaticon/productivity/shopping-cart.svg

<svg xmlns="http://www.w3.org/2000/svg" width="32" height="32" viewBox="0 0 24 24">
    <path d="M 23.894531 6.425781 C 23.796875 6.296875 23.648438 6.222656 23.488281 6.222656 L 23.484375 6.222656 L 6.230469 6.175781 L 5.011719 2.53125 C 4.941406 2.320312 4.746094 2.179688 4.527344 2.179688 L 0.511719 2.179688 C 0.226562 2.179688 0 2.410156 0 2.691406 C 0 2.972656 0.226562 3.203125 0.511719 3.203125 L 4.160156 3.203125 L 8.535156 16.269531 C 8.605469 16.480469 8.800781 16.617188 9.019531 16.617188 L 22.230469 16.617188 L 22.230469 19.238281 L 21.246094 19.238281 C 20.972656 18.507812 20.265625 17.996094 19.457031 17.996094 C 18.636719 17.996094 17.9375 18.515625 17.667969 19.238281 L 12.472656 19.238281 C 12.203125 18.515625 11.503906 17.996094 10.683594 17.996094 C 9.628906 17.996094 8.773438 18.855469 8.773438 19.90625 C 8.773438 20.960938 9.628906 21.820312 10.683594 21.820312 C 11.617188 21.820312 12.394531 21.148438 12.5625 20.261719 L 17.578125 20.261719 C 17.746094 21.148438 18.523438 21.820312 19.457031 21.820312 C 20.390625 21.820312 21.167969 21.148438 21.335938 20.261719 L 22.742188 20.261719 C 23.023438 20.261719 23.253906 20.03125 23.253906 19.75 L 23.253906 16.109375 C 23.253906 15.824219 23.023438 15.597656 22.742188 15.597656 L 21.53125 15.597656 L 23.980469 6.875 C 24.023438 6.71875 23.992188 6.550781 23.894531 6.425781 Z M 10.683594 20.796875 C 10.191406 20.796875 9.792969 20.398438 9.792969 19.90625 C 9.792969 19.417969 10.191406 19.019531 10.683594 19.019531 C 11.175781 19.019531 11.574219 19.417969 11.574219 19.90625 C 11.574219 20.398438 11.175781 20.796875 10.683594 20.796875 Z M 19.457031 20.796875 C 18.964844 20.796875 18.566406 20.398438 18.566406 19.90625 C 18.566406 19.417969 18.964844 19.019531 19.457031 19.019531 C 19.898438 19.019531 20.277344 19.347656 20.339844 19.78125 C 20.34375 19.824219 20.347656 19.867188 20.347656 19.90625 C 20.347656 20.398438 19.949219 20.796875 19.457031 20.796875 Z M 20.46875 15.597656 L 9.386719 15.597656 L 6.574219 7.199219 L 22.8125 7.253906 Z M 20.46875 15.597656"/>
</svg>

<svg xmlns="http://www.w3.org/2000/svg" width="32" height="32" viewBox="0 0 24 24">
    <path d="M23.895 6.426a.507.507 0 0 0-.407-.203h-.004L6.23 6.176 5.012 2.53a.511.511 0 0 0-.485-.351H.512a.511.511 0 1 0 0 1.023H4.16L8.535 16.27c.07.21.266.347.485.347h13.21v2.621h-.984a1.916 1.916 0 0 0-1.789-1.242c-.82 0-1.52.52-1.789 1.242h-5.195a1.912 1.912 0 0 0-1.79-1.242 1.913 1.913 0 0 0 0 3.824c.934 0 1.712-.672 1.88-1.558h5.015a1.916 1.916 0 0 0 1.879 1.558c.934 0 1.711-.672 1.879-1.558h1.406c.281 0 .512-.23.512-.512v-3.64a.511.511 0 0 0-.512-.512h-1.21l2.448-8.723a.511.511 0 0 0-.085-.45zm-13.211 14.37a.89.89 0 0 1 0-1.777.89.89 0 1 1 0 1.778zm8.773 0a.89.89 0 0 1 0-1.777.895.895 0 0 1 .89.887.89.89 0 0 1-.89.89zm1.012-5.198H9.387L6.574 7.199l16.239.055zm0 0"/>
</svg>
